lib/flags/s/TUV.svg

<svg xmlns="http://www.w3.org/2000/svg" fill="none" viewBox="0 0 16 12"><mask id="TUV_svg__a" width="16" height="12" x="0" y="0" mask-type="alpha" maskUnits="userSpaceOnUse"><path fill="#fff" d="M0 0H16V12H0z"/></mask><g mask="url(#TUV_svg__a)"><path fill="#00B4FF" fill-rule="evenodd" d="M0 0V12H16V0H0Z" clip-rule="evenodd"/><mask id="TUV_svg__b" width="16" height="12" x="0" y="0" mask-type="alpha" maskUnits="userSpaceOnUse"><path fill="#fff" fill-rule="evenodd" d="M0 0V12H16V0H0Z" clip-rule="evenodd"/></mask><g mask="url(#TUV_svg__b)"><path fill="#2E42A5" d="M0 0H9V7H0z"/><mask id="TUV_svg__c" width="9" height="7" x="0" y="0" mask-type="alpha" maskUnits="userSpaceOnUse"><path fill="#fff" d="M0 0H9V7H0z"/></mask><g mask="url(#TUV_svg__c)"><path fill="#F7FCFF" d="M-1.00214 6.49981L0.978339 7.36841L9.04494 0.944269L10.0896 -0.346497L7.97176 -0.636808L4.68159 2.13154L2.03334 3.99675L-1.00214 6.49981Z"/><path fill="#F50100" d="M-0.731018 7.10849L0.277943 7.61255L9.71445 -0.466309H8.29775L-0.731018 7.10849Z"/><path fill="#F7FCFF" d="M10.0021 6.49981L8.02166 7.36841L-0.0449371 0.944269L-1.08959 -0.346497L1.02824 -0.636808L4.31841 2.13154L6.96666 3.99675L10.0021 6.49981Z"/><path fill="#F50100" d="M9.93457 6.93661L8.92561 7.44067L4.90745 3.9817L3.71615 3.59523L-1.1901 -0.342034H0.226597L5.13009 3.50178L6.43256 3.96519L9.93457 6.93661Z"/><mask id="TUV_svg__d" width="11" height="9" x="-1" y="-1" fill="#000" maskUnits="userSpaceOnUse"><path fill="#fff" d="M-1-1H10V8H-1z"/><path fill-rule="evenodd" d="M4.99226 0H3.99226V3H0V4H3.99226V7H4.99226V4H9V3H4.99226V0Z" clip-rule="evenodd"/></mask><path fill="#F50100" fill-rule="evenodd" d="M4.99226 0H3.99226V3H0V4H3.99226V7H4.99226V4H9V3H4.99226V0Z" clip-rule="evenodd"/><path fill="#F7FCFF" d="M3.99226 0V-0.75H3.24226V0H3.99226ZM4.99226 0H5.74226V-0.75H4.99226V0ZM3.99226 3V3.75H4.74226V3H3.99226ZM0 3V2.25H-0.75V3H0ZM0 4H-0.75V4.75H0V4ZM3.99226 4H4.74226V3.25H3.99226V4ZM3.99226 7H3.24226V7.75H3.99226V7ZM4.99226 7V7.75H5.74226V7H4.99226ZM4.99226 4V3.25H4.24226V4H4.99226ZM9 4V4.75H9.75V4H9ZM9 3H9.75V2.25H9V3ZM4.99226 3H4.24226V3.75H4.99226V3ZM3.99226 0.75H4.99226V-0.75H3.99226V0.75ZM4.74226 3V0H3.24226V3H4.74226ZM0 3.75H3.99226V2.25H0V3.75ZM0.75 4V3H-0.75V4H0.75ZM3.99226 3.25H0V4.75H3.99226V3.25ZM4.74226 7V4H3.24226V7H4.74226ZM4.99226 6.25H3.99226V7.75H4.99226V6.25ZM4.24226 4V7H5.74226V4H4.24226ZM9 3.25H4.99226V4.75H9V3.25ZM8.25 3V4H9.75V3H8.25ZM4.99226 3.75H9V2.25H4.99226V3.75ZM4.24226 0V3H5.74226V0H4.24226Z" mask="url(#TUV_svg__d)"/></g><path fill="#FFD018" fill-rule="evenodd" d="M13.4284 5.3424L13.732 4.77968L14.398 4.75978L13.8823 4.32908L14.0601 3.74778L13.6156 4.0149L13.0536 3.67407L13.108 4.3199L12.6044 4.62246L13.2581 4.70417L13.4284 5.3424ZM11.732 5.77968L11.4284 6.3424L11.2581 5.70417L10.6044 5.62246L11.108 5.3199L11.0536 4.67407L11.6156 5.0149L12.0601 4.74778L11.8823 5.32908L12.398 5.75978L11.732 5.77968ZM10.4284 7.3424L10.732 6.77968L11.398 6.75978L10.8823 6.32908L11.0601 5.74778L10.6156 6.0149L10.0536 5.67407L10.108 6.3199L9.60442 6.62246L10.2581 6.70417L10.4284 7.3424ZM8.42838 9.3424L8.73198 8.77968L9.39803 8.75978L8.88234 8.32908L9.06013 7.74778L8.61558 8.0149L8.05355 7.67407L8.10797 8.3199L7.60442 8.62246L8.25809 8.70417L8.42838 9.3424ZM6.4871 10.8678L5.93704 11.1938L6.11978 10.559L5.60156 10.1523H6.18901L6.475 9.57067L6.78121 10.1523H7.29984L6.84805 10.559L7.06826 11.1938L6.4871 10.8678ZM8.73198 10.7797L8.42838 11.3424L8.25809 10.7042L7.60442 10.6225L8.10797 10.3199L8.05355 9.67407L8.61558 10.0149L9.06013 9.74778L8.88234 10.3291L9.39803 10.7598L8.73198 10.7797ZM10.732 9.77968L10.4284 10.3424L10.2581 9.70417L9.60442 9.62246L10.108 9.3199L10.0536 8.67407L10.6156 9.0149L11.0601 8.74778L10.8823 9.32908L11.398 9.75978L10.732 9.77968ZM12.732 8.77968L12.4284 9.3424L12.2581 8.70417L11.6044 8.62246L12.108 8.3199L12.0536 7.67407L12.6156 8.0149L13.0601 7.74778L12.8823 8.32908L13.398 8.75978L12.732 8.77968ZM13.4284 8.3424L13.732 7.77968L14.398 7.75978L13.8823 7.32908L14.0601 6.74778L13.6156 7.0149L13.0536 6.67407L13.108 7.3199L12.6044 7.62246L13.2581 7.70417L13.4284 8.3424Z" clip-rule="evenodd"/></g></g></svg>

<svg xmlns="http://www.w3.org/2000/svg" fill="none" viewBox="0 0 16 12"><mask id="TUV_svg__a" width="16" height="12" x="0" y="0" maskUnits="userSpaceOnUse"><path fill="#fff" d="M0 0h16v12H0z"/></mask><g mask="url(#TUV_svg__a)"><path fill="#00B4FF" fill-rule="evenodd" d="M0 0v12h16V0H0z" clip-rule="evenodd"/><mask id="TUV_svg__b" width="16" height="12" x="0" y="0" maskUnits="userSpaceOnUse"><path fill="#fff" fill-rule="evenodd" d="M0 0v12h16V0H0z" clip-rule="evenodd"/></mask><g mask="url(#TUV_svg__b)"><path fill="#2E42A5" d="M0 0h9v7H0z"/><mask id="TUV_svg__c" width="9" height="7" x="0" y="0" maskUnits="userSpaceOnUse"><path fill="#fff" d="M0 0h9v7H0z"/></mask><g mask="url(#TUV_svg__c)"><path fill="#F7FCFF" d="M-1.002 6.5l1.98.868L9.045.944l1.045-1.29-2.118-.29-3.29 2.768-2.649 1.865L-1.002 6.5z"/><path fill="#F50100" d="M-.731 7.108l1.009.505 9.436-8.08H8.298L-.731 7.109z"/><path fill="#F7FCFF" d="M10.002 6.5l-1.98.868L-.045.944-1.09-.346l2.118-.29 3.29 2.768 2.649 1.865L10.002 6.5z"/><path fill="#F50100" d="M9.935 6.937l-1.01.504-4.018-3.46-1.19-.386L-1.19-.342H.227L5.13 3.502l1.303.463 3.502 2.972z"/><mask id="TUV_svg__d" width="11" height="9" x="-1" y="-1" fill="#000" maskUnits="userSpaceOnUse"><path fill="#fff" d="M-1-1h11v9H-1z"/><path fill-rule="evenodd" d="M4.992 0h-1v3H0v1h3.992v3h1V4H9V3H4.992V0z" clip-rule="evenodd"/></mask><path fill="#F50100" fill-rule="evenodd" d="M4.992 0h-1v3H0v1h3.992v3h1V4H9V3H4.992V0z" clip-rule="evenodd"/><path fill="#F7FCFF" d="M3.992 0v-.75h-.75V0h.75zm1 0h.75v-.75h-.75V0zm-1 3v.75h.75V3h-.75zM0 3v-.75h-.75V3H0zm0 1h-.75v.75H0V4zm3.992 0h.75v-.75h-.75V4zm0 3h-.75v.75h.75V7zm1 0v.75h.75V7h-.75zm0-3v-.75h-.75V4h.75zM9 4v.75h.75V4H9zm0-1h.75v-.75H9V3zM4.992 3h-.75v.75h.75V3zm-1-2.25h1v-1.5h-1v1.5zM4.742 3V0h-1.5v3h1.5zM0 3.75h3.992v-1.5H0v1.5zM.75 4V3h-1.5v1h1.5zm3.242-.75H0v1.5h3.992v-1.5zM4.742 7V4h-1.5v3h1.5zm.25-.75h-1v1.5h1v-1.5zM4.242 4v3h1.5V4h-1.5zM9 3.25H4.992v1.5H9v-1.5zM8.25 3v1h1.5V3h-1.5zm-3.258.75H9v-1.5H4.992v1.5zM4.242 0v3h1.5V0h-1.5z" mask="url(#TUV_svg__d)"/></g><path fill="#FFD018" fill-rule="evenodd" d="M13.428 5.342l.304-.562.666-.02-.516-.43.178-.582-.444.267-.562-.34.054.645-.504.302.654.082.17.638zm-1.696.438l-.304.562-.17-.638-.654-.082.504-.302-.054-.646.562.34.444-.266-.178.581.516.43-.666.02zm-1.304 1.562l.304-.562.666-.02-.516-.43.178-.582-.444.267-.562-.34.054.645-.504.302.654.082.17.638zm-2 2l.304-.562.666-.02-.516-.43.178-.582-.444.267-.562-.34.054.645-.504.302.654.082.17.638zm-1.94 1.526l-.551.326.183-.635-.518-.407h.587l.286-.581.306.581H7.3l-.452.407.22.635-.58-.326zm2.244-.088l-.304.562-.17-.638-.654-.082.504-.302-.054-.646.562.34.444-.266-.178.581.516.43-.666.02zm2-1l-.304.562-.17-.638-.654-.082.504-.302-.054-.646.562.34.444-.266-.178.581.516.43-.666.02zm2-1l-.304.562-.17-.638-.654-.082.504-.302-.054-.646.562.34.444-.266-.178.581.516.43-.666.02zm.696-.438l.304-.562.666-.02-.516-.43.178-.582-.444.267-.562-.34.054.645-.504.302.654.082.17.638z" clip-rule="evenodd"/></g></g></svg>
